X:5885
T:Scottish reggae de Poullaouen (B. Le Tron)
O:england
M:2/4
L:1/16
K:C
ABcc Bced|ccdc B3e|egfe geed|\
ccdc cBcd|ABcc Bced|
ccdc B3e|egfe geed|ccdc A3A:|\
|:ABBc c3B|BAAG F3A|
AGFG E3d|dccd B3A|ABBc c3B|\
BAAG F3A|AGFG E3d|dccB A4:|


